img/icons/mail.svg

<svg width="30" height="30" viewBox="0 0 30 30" fill="none" xmlns="http://www.w3.org/2000/svg">
<circle cx="15" cy="15" r="15" fill="#88C74A"/>
<rect x="5.24512" y="8.44395" width="19.5105" height="14.4522" fill="white"/>
<path d="M26.9233 23.4854C26.9211 23.74 26.7958 23.9837 26.5745 24.1638C26.3532 24.3439 26.0537 24.446 25.7405 24.448H4.25992C3.94612 24.4478 3.64528 24.3462 3.4235 24.1657C3.20172 23.9852 3.07715 23.7406 3.07715 23.4854V22.5093H24.5387V11.1678L15.0002 18.1472L3.07715 9.42299V7.96896C3.07715 7.71187 3.20277 7.46531 3.42637 7.28352C3.64997 7.10173 3.95324 6.9996 4.26946 6.9996H25.731C26.0472 6.9996 26.3505 7.10173 26.5741 7.28352C26.7977 7.46531 26.9233 7.71187 26.9233 7.96896V23.4854ZM5.97923 8.93831L15.0002 15.5396L24.0212 8.93831H5.97923Z" fill="#88C74A"/>
<rect x="3.07715" y="6.9996" width="2.32645" height="17.4484" rx="1" fill="#88C74A"/>
</svg>

<svg width="30" height="30" fill="none" xmlns="http://www.w3.org/2000/svg"><circle cx="15" cy="15" r="15" fill="#88C74A"/><path fill="#fff" d="M5.245 8.444h19.511v14.452H5.245z"/><path d="M26.923 23.485a.89.89 0 01-.348.679c-.222.18-.521.282-.834.284H4.26c-.314 0-.615-.102-.836-.282a.882.882 0 01-.347-.68v-.977H24.54V11.168L15 18.148 3.077 9.422V7.969c0-.257.126-.504.35-.685.223-.182.526-.284.842-.284h21.462c.316 0 .62.102.843.284.224.181.35.428.35.685v15.516zM5.98 8.938L15 15.54l9.021-6.602H5.98z" fill="#88C74A"/><rect x="3.077" y="7" width="2.326" height="17.448" rx="1" fill="#88C74A"/></svg>
